X: 11049
T: Dublin Streets
R: slip jig
M: 9/8
K: Eminor
G2A BGE BGE|F2G AFD AFD|G2A BGE BGE|dcB AGF E3:|
e2f g2a bge|d2e f2g afd|e2f g2a bge|dcB AGF E3|e2f g2a bge|ded d2f afd|gbg faf ege|dcB AGF E3||
G2B E2B BAG|F2A D2A AGF|G2B E2B BAG|1 B/c/dB AGF DEF:|2 B/c/dB AGF E3||
g2e g2e edB|f2d dcd fed|1 g2e g2e edB|dBG GBd e2f:|2 gfe fed ecA|B/c/dB AGF E3||
E2F G2A BGE|D2E F2G AFD|E2F G2A BGE|BcB AGF E3:|
eBe e2f gfe|dAd d2e fed|eBe e2f gfe|dcB AGF E3:|

